icons/solid/gift-top.svg

<svg width="24" height="24" viewBox="0 0 24 24" fill="none" xmlns="http://www.w3.org/2000/svg">
<path d="M11.25 3V7.04639C10.0748 5.9271 8.21463 5.94444 7.06066 7.09841C5.91897 8.2401 5.88985 10.073 6.9733 11.25H1.5V5.25C1.5 4.00736 2.50736 3 3.75 3H11.25Z" fill="#0F172A"/>
<path d="M12.75 3V7.01102C13.927 5.92757 15.7599 5.95669 16.9016 7.09838C18.0433 8.24008 18.0724 10.073 16.9889 11.25H22.5V5.25C22.5 4.00736 21.4926 3 20.25 3H12.75Z" fill="#0F172A"/>
<path d="M22.5 12.75H13.5168C13.7063 14.8524 15.4732 16.5 17.625 16.5C18.0392 16.5 18.375 16.8358 18.375 17.25C18.375 17.6642 18.0392 18 17.625 18C15.5412 18 13.722 16.8669 12.75 15.1831V21H20.25C21.4926 21 22.5 19.9926 22.5 18.75V12.75Z" fill="#0F172A"/>
<path d="M11.25 21V15.1831C10.278 16.8669 8.45885 18 6.375 18C5.96079 18 5.625 17.6642 5.625 17.25C5.625 16.8358 5.96079 16.5 6.375 16.5C8.52677 16.5 10.2937 14.8524 10.4832 12.75H1.5V18.75C1.5 19.9926 2.50736 21 3.75 21H11.25Z" fill="#0F172A"/>
<path d="M11.0855 10.3536C11.1154 10.6514 11.1234 10.9286 11.1215 11.1592C10.8908 11.1611 10.6136 11.1532 10.3158 11.1232C9.48292 11.0394 8.63902 10.7981 8.12132 10.2804C7.53553 9.6946 7.53553 8.74485 8.12132 8.15907C8.70711 7.57328 9.65685 7.57328 10.2426 8.15907C10.7603 8.67677 11.0016 9.52067 11.0855 10.3536Z" fill="#0F172A"/>
<path d="M12.8768 10.3535C12.8468 10.6513 12.8389 10.9286 12.8408 11.1592C13.0714 11.1611 13.3486 11.1531 13.6464 11.1232C14.4793 11.0393 15.3232 10.7981 15.8409 10.2804C16.4267 9.69457 16.4267 8.74483 15.8409 8.15904C15.2551 7.57325 14.3054 7.57325 13.7196 8.15904C13.2019 8.67674 12.9606 9.52064 12.8768 10.3535Z" fill="#0F172A"/>
</svg>

<svg xmlns="http://www.w3.org/2000/svg" viewBox="0 0 24 24" fill="currentColor" aria-hidden="true" data-slot="icon">
  <path d="M11.25 3v4.046a3 3 0 0 0-4.277 4.204H1.5v-6A2.25 2.25 0 0 1 3.75 3h7.5ZM12.75 3v4.011a3 3 0 0 1 4.239 4.239H22.5v-6A2.25 2.25 0 0 0 20.25 3h-7.5ZM22.5 12.75h-8.983a4.125 4.125 0 0 0 4.108 3.75.75.75 0 0 1 0 1.5 5.623 5.623 0 0 1-4.875-2.817V21h7.5a2.25 2.25 0 0 0 2.25-2.25v-6ZM11.25 21v-5.817A5.623 5.623 0 0 1 6.375 18a.75.75 0 0 1 0-1.5 4.126 4.126 0 0 0 4.108-3.75H1.5v6A2.25 2.25 0 0 0 3.75 21h7.5Z"/>
  <path d="M11.085 10.354c.03.297.038.575.036.805a7.484 7.484 0 0 1-.805-.036c-.833-.084-1.677-.325-2.195-.843a1.5 1.5 0 0 1 2.122-2.12c.517.517.759 1.36.842 2.194ZM12.877 10.354c-.03.297-.038.575-.036.805.23.002.508-.006.805-.036.833-.084 1.677-.325 2.195-.843A1.5 1.5 0 0 0 13.72 8.16c-.518.518-.76 1.362-.843 2.194Z"/>
</svg>
